X: 222
T: T.M.S.A. March
T: (Traditional Music and Song Association)
C: Bert Murray
R: march
B: Bert Murray's "Bon Accord Collection" 1999 p.22
N: Repeated in A major
Z: 2011 John Chambers <jc:trillian.mit.edu>
M: 4/4
L: 1/8
K: G
|: uD |\
G2 (B>A) GDB,D | G>D GA B2 (A>B) | c>d ec B>c dB | Ad f>e dcBA |
G2 (B>A) GDB,D | G>D GA B2 (AB) | c>d ec B>c dB | ADFA G3 :|
|: (uB/c/) |\
d>e dc BGBc | d>e dB G2 (AB) | c>d cA FDFA | c>d cB A2 (Bc) |
dg d>c BGBc | dg d>B G2 (AB) | c>d eg dBGB | ADFA G3 :|

%%sep 2 1 500

